!!!!SEGMENT: pl-wumfc--n50542_moniuszko-stanislaw--rybaczka-piekna-rybaczko.krn
!!!cenid: 18xx:4082
!!!COM: Moniuszko, Stanisław
!!!COM-rismID: pe30008351
!!!CDT: 1819/05/05-1872/06/04
!!!CNT: Polish
!!!OTL: Rybaczka/Piękna rybaczko
!!!PDT: 1855
!!!AGN:
!!!SMS-siglum: PL-Wumfc
!!!SMS-shelfmark: N50542
!!!SMS-shelfwork: W
!!!SMS-variant:
!!!SMS-altvar:
!!!NIFC-rismSourceID: 1001171534
!!!NIFC-rismChildID: 1001171534
!!!NIFC-islandoraID: pl-wumfc:6794
!!!URL-pdf-islandora: https://repozytorium.nifc.pl/islandora/object/pl-wumfc%3A6794/datastream/PDF/view
!!!URL-scan: https://polish.musicsources.pl/pl/lokalizacje/galeria/druki-muzyczne/12559-rybaczka @EN{Scan on Polish Music Sources Website} @PL{Skany w portalu Dziedzictwo Muzyki Polskiej w otwartym dostępie}
!!!ONB-nifc:
!!!AIN: 1 piano 1 soprn
!!!key: G
**kern	**kern	**dynam	**kern	**text	**text	**dynam
*part2	*part2	*part2	*part1	*part1	*part1	*part1
*staff3	*staff2	*	*staff1	*staff1	*staff1	*
*I"Fortepian.	*I"Fortepian.	*	*I"Głos.	*	*	*
*>[A,B,B,C]	*>[A,B,B,C]	*	*>[A,B,B,C]	*	*	*
*>A	*>A	*	*>A	*	*	*
*Ipiano	*Ipiano	*	*Isoprn	*	*	*
*ICklav	*ICklav	*	*ICvox	*	*	*
*IGacmp	*IGacmp	*	*IGsolo	*	*	*
*clefF4	*clefG2	*	*clefG2	*	*	*
*k[f#]	*k[f#]	*	*k[f#]	*	*	*
*G:	*G:	*	*G:	*	*	*
*M3/8	*M3/8	*	*M3/8	*	*	*
=1	=1	=1	=1	=1	=1	=1
!!LO:TX:B:a:t=Allegretto.
8GG/	4.r	p	4.r	.	.	.
8D\L 8G 8B	.	.	.	.	.	.
8D\J 8G 8B	.	.	.	.	.	.
=2	=2	=2	=2	=2	=2	=2
8GG/	4.r	.	4.r	.	.	.
8D\L 8G 8B	.	.	.	.	.	.
8D\J 8G 8B	.	.	.	.	.	.
=3	=3	=3	=3	=3	=3	=3
8GG/	8dd'\L	.	8b\	Pięk-	.	.
8D\L 8G 8B	8b'\	.	8g/	-na	.	.
8D\J 8G 8B	8cc'\J	.	8a/	ry-	.	.
=4	=4	=4	=4	=4	=4	=4
8GG/	4dd^^\	.	4b\	-bacz-	.	.
8D\L 8G 8B	.	.	.	.	.	.
8D\J 8G 8B	8dd\	.	8b\	-ko!	.	.
=5	=5	=5	=5	=5	=5	=5
8GG/	8gg'\L	.	8dd\	z wod-	.	.
8D\L 8G 8B	8b'\	.	8g/	-nis-	.	.
8D\J 8G 8B	8cc'\J	.	8a/	-tych	.	.
=6	=6	=6	=6	=6	=6	=6
8GG/	4dd^^\	.	4b\	to-	.	.
8D\L 8G 8B	.	.	.	.	.	.
8D\J 8G 8B	8dd\	.	8b\	-ni	.	.
!!LO:LB:g=original
=7	=7	=7	=7	=7	=7	=7
8C/	(8ee\L	.	8cc\	przy-	.	.
8G\L 8A	8dd\)	.	8b\	-bij	.	.
8G\J 8A	8cc'\J	.	8a/	do	.	.
=8	=8	=8	=8	=8	=8	=8
8D\	(8cc\L	.	8a/	brze-	.	.
8F#\L 8d	8b\)	.	8g/	-gu	.	.
8F#\J 8d	8a'\J	.	8f#/	z twą	.	.
=9	=9	=9	=9	=9	=9	=9
8GG/	(8.b\L	>	(8.g/L	łód-	.	.
8D\L 8G 8d	.	.	.	.	.	.
.	16cc\L	]	16a/L	.	.	.
8D\J 8G 8d	16dd\	.	16b/	.	.	.
.	16cc\JJ)	.	16a/JJ)	.	.	.
=10	=10	=10	=10	=10	=10	=10
8GG/	4b\	.	4g/	-ką,	.	.
8D\L 8G 8d	.	.	.	.	.	.
8D\J 8G 8d	8r	.	8r	.	.	.
=11	=11	=11	=11	=11	=11	=11
8GG/	8dd'\L	.	8b\	i	.	.
8D\L 8G 8B	8b'\	.	8g/	siądź	.	.
8D\J 8G 8B	8cc'\J	.	8a/	tu	.	.
=12	=12	=12	=12	=12	=12	=12
8GG/	4dd^^\	.	4b\	przy	.	.
8D\L 8G 8B	.	.	.	.	.	.
8D\J 8G 8B	8dd\	.	8b\	mnie,	.	.
!!LO:LB:g=original
=13	=13	=13	=13	=13	=13	=13
!	!LO:TX:i:b:t=rall.	!	!LO:TX:i:a:t=rallent.	!	!	!
.	(8qdd/	.	(8qb/	.	.	.
8GG/	8gg'\L)	.	8dd\)	przy	.	.
8D\L 8G 8B	8b'\	.	8g/	mnie	.	.
8D\J 8G 8B	8cc'\J	.	8a/	bli-	.	.
=14	=14	=14	=14	=14	=14	=14
8GG/	4dd^^\	.	4b\	-ziu-	.	.
8D\L 8G 8B	.	.	.	.	.	.
8D\J 8G 8B	8dd\	.	8b\	-tko,	.	.
=15	=15	=15	=15	=15	=15	=15
!	!LO:TX:B:a:t=a tempo.	!	!LO:TX:B:a:t=a tempo.	!	!	!
!	!LO:TUP:a	!	!	!	!	!
8C/	(24ee\LL	>	8cc\	bę-	.	.
.	24ff#\	.	.	.	.	.
.	24ee\J	.	.	.	.	.
8G\L 8A 8e	8dd\)	]	8b\	-dziem	.	.
8G\J 8A 8e	8cc'\J	.	8a/	roz-	.	.
=16	=16	=16	=16	=16	=16	=16
!	!LO:TUP:a	!	!LO:TUP:a:problem:klamra łukowa	!	!	!
8D\	(24cc\LL	>	24a/LL	-ma-	.	.
.	24dd\	.	24b/	.	.	.
.	24cc\J	.	24a/JJ	.	.	.
8F#\L 8d	8b\)	]	8g/	-wiać	.	.
8F#\J 8d	8a'\J	.	8f#/	dłoń	.	.
=17	=17	=17	=17	=17	=17	=17
8GG/	(8.b\L	.	(8.g/L	w dło-	.	.
8D\L 8G 8d	.	.	.	.	.	.
.	16cc\L	.	16a/L	.	.	.
8D\J 8G 8d	16dd\	.	16b/	.	.	.
.	16cc\JJ)	.	16a/JJ)	.	.	.
=18	=18	=18	=18	=18	=18	=18
8GG/	4b\	.	4g/	-ni.	.	.
8D\L 8G 8d	.	.	.	.	.	.
8D\J 8G 8d	8r	.	8r	.	.	.
!!LO:PB:g=original
=19!|:	=19!|:	=19!|:	=19!|:	=19!|:	=19!|:	=19!|:
*>B	*>B	*	*>B	*	*	*
8D\	8f#'\L	<	8a/	Na	I	.
8F#\L 8A 8d	8a'\	.	8f#/	mo-	mo-	.
8F#\J 8A 8d	8dd'\J	[[	8a/	-jem	-je	.
=20	=20	=20	=20	=20	=20	=20
8D\	(4gg\	.	4dd\	ser-	ser-	.
8A\L 8d	.	.	.	.	.	.
8A\J 8d	8ffn\)	.	8dd\	-cu	-ce	.
=21	=21	=21	=21	=21	=21	=21
8E\	(8ffn\L	>	8dd\	głów-	rów-	.
8G#X\L 8d	8ee\)	]]	8cc\	-kę	-ne	.
8G#\J 8d	8dd'\J	.	8b\	twą	jest	.
=22	=22	=22	=22	=22	=22	=22
8AA/	(4ee\	.	4cc\	zło-	mo-	.
8A\L 8c	.	.	.	.	.	.
8A\J 8c	8cc\)	.	8a/	-żysz	-rzu:	.
=23	=23	=23	=23	=23	=23	=23
*^	*	*	*	*	*	*
8rc	4.Cn\	(8ee-X\L	.	8cc\	a-	ma	.
8G/L 8A 8e-X	.	8dd\)	.	8b\	-ni	bu-	.
8G/J 8A 8e-	.	8cc'\J	.	8a/	się	-rze	.
=24	=24	=24	=24	=24	=24	=24	=24
8rc	4.C#X\	(8b/L	.	8g/	lę-	i	.
8G/L 8A 8en	.	8a/)	.	8f#/	-kaj	ci-	.
8G/J 8A 8e	.	8g'/J	.	8e/	zby-	-szę	.
!!LO:LB:g=original
=25	=25	=25	=25	=25	=25	=25	=25
8rB	4.D\	(8.a/L	.	(8.f#/L	-tecz-	bło-	.
8F#/L 8A 8d	.	.	.	.	.	.	.
.	.	16b/L	.	16g/L	.	.	.
8F#/J 8A 8d	.	16cc/	.	16a/	.	.	.
.	.	16b/JJ	.	16g/JJ)	.	.	.
=26	=26	=26	=26	=26	=26	=26	=26
8rB	4.D\	8a/)	.	4f#/	-nie,	-gą,	.
8F#/L 8c	.	(8.ee\L	>	.	.	.	.
8F#/J 8c	.	.	.	8r	.	.	.
.	.	16dd\Jk)	]	.	.	.	.
*v	*v	*	*	*	*	*	*
=27	=27	=27	=27	=27	=27	=27
8GG/	8dd'\L	.	8b\	wszak	ma	.
8D\L 8G 8B 8d	8b'\	.	8g/	się	swe	.
8D\J 8G 8B 8d	8cc'\J	.	8a/	po-	wez-	.
=28	=28	=28	=28	=28	=28	=28
8GG/	(4.ddT\	fp	4b\	-wie-	-bra-	.
8D\L 8G 8B 8d	.	.	.	.	.	.
8D\J 8G 8B 8d	.	.	8b\	-rzać	-nia	.
.	16qqcc#X/LL	.	.	.	.	.
.	16qqdd/JJ	.	.	.	.	.
=29	=29	=29	=29	=29	=29	=29
8GG/	8gg'\L)	.	8dd\	co	i	.
8D\L 8G 8B 8d	8b\	.	8g/	dzień	w swem	.
8D\J 8G 8B 8d	8cc\J	.	8a/	nie	prze-	.
=30	=30	=30	=30	=30	=30	=30
8GG/	8dd\	.	4b\	trwo-	-stwo-	.
8D\L 8G 8B 8d	(16d/LL	.	.	.	.	.
.	16g/	.	.	.	.	.
8D\J 8G 8B 8d	16b/	.	8b\	-żysz	-rzu	.
.	16dd/JJ)	.	.	.	.	.
!!LO:LB:g=original
=31	=31	=31	=31	=31	=31	=31
!	!	!	!LO:TX:i:a:t=riten.	!	!	!
8GG#X/	(8ffn\L	sf	8dd\	dzi-	nie	.
!LO:TX:i:a:t=riten.	!	!	!	!	!	!
8E\L 8B	8ee\)	.	8cc\	-kie-	jed-	.
8E\J 8B	8dd'\J	.	8b\	-mu	-ną	.
=32	=32	=32	=32	=32	=32	=32
8AA/	8ee\L	.	8cc\	mo-	pe-	.
(8d\L 8fn	(8g#X\ 8b	.	8g#X/	-rzu	-reł-	.
8c\J) 8e	8a\J) 8cc	.	8a/	bez-	-kę	.
=33	=33	=33	=33	=33	=33	=33
*	*^	*	*	*	*	*
!	!LO:TX:B:b:t=lento.	!	!	!LO:TX:B:a:t=lento.	!	!	!LO:DY:a
8DD/	(8.dd/L	8r	.	(8.b/L	-piecz-	dro-	<
8D\L 8A	.	8f#\L	.	.	.	.	.
.	16cc/L	.	.	16a/L	.	.	[
!	!	!	!	!	!	!	!LO:DY:a
8D;\J 8A	16.dd;/	8f#\J	.	16.b;/	.	.	>
.	32cc/JJk)	.	.	32a/JJk)	.	.	]
*	*v	*v	*	*	*	*	*
=34	=34	=34	=34	=34	=34	=34
!	!LO:TX:B:b:t=a tempo.	!	!	!	!	!
8GG/	4g/ 4b	.	4g/	-nie.	-gą.	.
8D\L 8G 8B	.	.	.	.	.	.
8D\J 8G 8B	8r	.	8r	.	.	.
=35:|!	=35:|!	=35:|!	=35:|!	=35:|!	=35:|!	=35:|!
*>C	*>C	*	*>C	*	*	*
8GG/	8dd'\	p	4.r	.	.	.
!	!LO:TX:i:b:t=scherzando.	!	!	!	!	!
8D\L 8F# 8c	(16a\LL	.	.	.	.	.
.	16dd\	.	.	.	.	.
8D\J 8F# 8c	16a\	.	.	.	.	.
.	16dd\JJ	.	.	.	.	.
=36	=36	=36	=36	=36	=36	=36
*	*^	*	*	*	*	*
!	!LO:TX:i:b:t=ten.	!	!	!	!	!	!
8GG/	8r	4.b^<\)	.	4.r	.	.	.
!	!	!	!LO:DY:a	!	!	!	!
8D\L 8G 8B	(<16gg/LL	.	pp	.	.	.	.
.	16ddd/	.	.	.	.	.	.
8D\J 8G 8B	16gg/	.	.	.	.	.	.
.	16ddd/JJ)	.	.	.	.	.	.
*	*v	*v	*	*	*	*	*
!!LO:LB:g=original
=37	=37	=37	=37	=37	=37	=37
8GG/	8dd'\	.	4.r	.	.	.
8D\L 8F# 8c	(16a\LL	.	.	.	.	.
.	16dd\	.	.	.	.	.
8D\J 8F# 8c	16a\	.	.	.	.	.
.	16dd\JJ	.	.	.	.	.
=38	=38	=38	=38	=38	=38	=38
*	*^	*	*	*	*	*
!	!LO:TX:i:b:t=ten.	!	!	!	!	!	!
8GG/	8r	4.b^\)	.	4.r	.	.	.
!	!	!	!LO:DY:a	!	!	!	!
8D\L 8G 8B	(<16gg/LL	.	pp	.	.	.	.
.	16ddd/	.	.	.	.	.	.
8D\J 8G 8B	16gg/	.	.	.	.	.	.
.	16ddd/JJ	.	.	.	.	.	.
=39	=39	=39	=39	=39	=39	=39	=39
*^	*	*	*	*	*	*	*
8r	4.C#X^^\	8bb-X^^/	8gg\)	.	4.r	.	.	.
8E/L 8G 8B-X	.	(16ee\LL	4ryy	.	.	.	.	.
.	.	16cc#X\	.	.	.	.	.	.
8E/J 8G 8B-	.	16b-X\	.	.	.	.	.	.
.	.	16g\JJ	.	.	.	.	.	.
*	*	*v	*v	*	*	*	*	*
=40	=40	=40	=40	=40	=40	=40	=40
.	8qDD/	.	.	.	.	.	.
8D/L	(4.D\	8d'/L) 8bn	.	4.r	.	.	.
8E/	.	8c#X'/ 8a#X	.	.	.	.	.
8F#/J	.	8cn'/J 8an	.	.	.	.	.
*v	*v	*	*	*	*	*	*
=41	=41	=41	=41	=41	=41	=41
8G/L)	8B/ 8g	.	4.r	.	.	.
8D'/	(16d/LL	.	.	.	.	.
.	16g/	.	.	.	.	.
8BB'/J	16d/	.	.	.	.	.
.	[>16g/JJ	.	.	.	.	.
=42	=42	=42	=42	=42	=42	=42
!LO:N:vis=4.	!LO:N:vis=4.	!	!LO:N:vis=4.	!	!	!
4GG/	4G/) 4g]	.	4.r	.	.	.
8r	8r	.	.	.	.	.
==	==	==	==	==	==	==
*-	*-	*-	*-	*-	*-	*-
!!!system-decoration: (p1){(p2)}
!!!ENC: Andrzej Gręziak
!!!END: 2022-08-19
!!!ENC: Kamil Watkowski
!!!END: 2022-09-24
!!!RDF**kern: > = above
!!!RDF**kern: < = below
!!!YEC: Copyright 2022 Narodowy Instytut Fryderyka Chopina (https://polishscores.org)
!!!YEM: License CC-BY-4.0 (https://creativecommons.org/licenses/by/4.0)
